X: 466
T:Jim Donoghue's
R:reel
M:4/4
L:1/8
N:Posted to the woodenflute mailing list December 2001
Z:Rachel Marsh
K:D
~A3F BF ~F2|BFAF EFDE|AF ~F2 BFAF|EDEF D2 F|
AF  ~F2 BF ~F2|AF~F2 ABde|fgfe dBAF|EDEF D3z:|
|:dffe ~f3e|dfed BAFA|Beed e2de|fedf edBA|
dffe ~f3e|dfed BAFB|ABde fdAF|1 EDEF DEFA:|2 EDEF ~D3z||
<end>
<start>
